X:72
T:Steyrer Tanz in G, nr. 33
C:traditionell
R:Steirer
A:Hallstatt, Salzkammergut
B:Corpus Musicae Popularis Austriacae (COMPA), 5.Band: J.M.Schmalnauer " Tanz Musik", Verlag Boehlau, Wien 1996
S:manuscript des Johann Michael Schmalnauer um 1820
N:im der quelle in G
Z:abc transcription Simon Wascher
F:http://simonwascher.info/TradArchiv/
M:3/4
L:1/8
K:G
V:1
%violino 1mo
(Bd) Td2 ed | dccD F2 | DccD F2 | DBBD G2 |\
(Bd) Td2 ed | dccD F2 | DccD FA | "in D"G6 :|
V:2
%violino 2do
(GB) TB2 .c.B | (BA)(AF) D2 | FAAF D2 | BddD B2 |\
(GB) TB2 .c.B | (BA)(AF) D2 | FAAF Dc | "in D"B6 :|
